app/public/logos/cfg.svg

<svg xmlns="http://www.w3.org/2000/svg" width="350pt" height="350pt" style="isolation:isolate" viewBox="0 0 350 350"><defs><clipPath id="a"><path d="M0 0h350v350H0z"/></clipPath></defs><g clip-path="url(#a)"><path d="M0 0h350v350H0z" style="fill:#000"/><g fill="#FFF" fill-rule="evenodd"><path d="M73.305 252.119c-8.051-16.95-12.288-35.594-12.288-55.509 0-72.881 58.898-131.779 131.78-131.779 40.678 0 76.695 18.22 100.847 47.033l14.407-12.288c-27.543-33.051-69.068-53.813-115.254-53.813-83.475 0-150.848 67.373-150.848 150.423 0 22.882 5.085 44.492 13.983 63.56z"/><path d="M192.797 285.593c-49.153 0-89.407-39.83-89.407-89.407 0-49.152 39.83-89.406 89.407-89.406 27.542 0 52.118 12.288 68.644 31.779l14.406-12.288c-19.915-23.729-49.576-38.559-83.05-38.559-59.746.424-108.475 48.729-108.475 108.474s48.305 108.051 108.051 108.051v-18.644z"/><path d="M225 223.305c-7.627 9.322-19.492 15.254-32.627 15.254-23.305 0-42.373-19.067-42.373-42.373s19.068-42.372 42.373-42.372c13.135 0 24.576 5.932 32.627 15.254l16.102-13.56c-11.865-13.983-29.238-22.881-48.729-22.881-35.17 0-63.559 28.39-63.559 63.559 0 35.17 28.389 63.56 63.559 63.56 17.796 0 33.898-7.204 45.763-19.492z"/></g></g></svg>

<?xml version="1.0" encoding="UTF-8" standalone="no"?><!-- Generator: Gravit.io --><svg xmlns="http://www.w3.org/2000/svg" xmlns:xlink="http://www.w3.org/1999/xlink" style="isolation:isolate" viewBox="0 0 350 350" width="350pt" height="350pt"><defs><clipPath id="_clipPath_N332H8WwllXjJCkDks8rmsaBeorvBnIR"><rect width="350" height="350"/></clipPath></defs><g clip-path="url(#_clipPath_N332H8WwllXjJCkDks8rmsaBeorvBnIR)"><rect width="350" height="350" style="fill:rgb(0,0,0)"/><g><path d=" M 73.305 252.119 C 65.254 235.169 61.017 216.525 61.017 196.61 C 61.017 123.729 119.915 64.831 192.797 64.831 C 233.475 64.831 269.492 83.051 293.644 111.864 L 308.051 99.576 C 280.508 66.525 238.983 45.763 192.797 45.763 C 109.322 45.763 41.949 113.136 41.949 196.186 C 41.949 219.068 47.034 240.678 55.932 259.746 L 73.305 252.119 L 73.305 252.119 Z " fill-rule="evenodd" fill="rgb(255,255,255)"/><path d=" M 192.797 285.593 C 143.644 285.593 103.39 245.763 103.39 196.186 C 103.39 147.034 143.22 106.78 192.797 106.78 C 220.339 106.78 244.915 119.068 261.441 138.559 L 275.847 126.271 C 255.932 102.542 226.271 87.712 192.797 87.712 C 133.051 88.136 84.322 136.441 84.322 196.186 C 84.322 255.932 132.627 304.237 192.373 304.237 L 192.373 285.593 L 192.797 285.593 Z " fill-rule="evenodd" fill="rgb(255,255,255)"/><path d=" M 225 223.305 C 217.373 232.627 205.508 238.559 192.373 238.559 C 169.068 238.559 150 219.492 150 196.186 C 150 172.881 169.068 153.814 192.373 153.814 C 205.508 153.814 216.949 159.746 225 169.068 L 241.102 155.508 C 229.237 141.525 211.864 132.627 192.373 132.627 C 157.203 132.627 128.814 161.017 128.814 196.186 C 128.814 231.356 157.203 259.746 192.373 259.746 C 210.169 259.746 226.271 252.542 238.136 240.254 L 225 223.305 L 225 223.305 Z " fill-rule="evenodd" fill="rgb(255,255,255)"/></g></g></svg>
